NotoEmoji/1f1e6-1f1fa.svg

<svg xmlns="http://www.w3.org/2000/svg" viewBox="0 0 36 36"><path fill="#00247D" d="M32 5H4c-.205 0-.407.015-.604.045l-.004 1.754-2.73-.004C.244 7.427 0 8.185 0 9v18c0 2.209 1.791 4 4 4h28c2.209 0 4-1.791 4-4V9c0-2.209-1.791-4-4-4z"/><path d="M9 26.023l-1.222 1.129.121-1.66-1.645-.251 1.373-.94-.829-1.443 1.591.488L9 21.797l.612 1.549 1.591-.488-.83 1.443 1.374.94-1.645.251.121 1.66zM27.95 9.562l-.799.738.079-1.086-1.077-.164.899-.615-.542-.944 1.04.319.4-1.013.401 1.013 1.041-.319-.543.944.898.615-1.076.164.079 1.086zm-4 6l-.799.739.079-1.086-1.077-.164.899-.616-.542-.944 1.04.319.4-1.013.401 1.013 1.041-.319-.543.944.898.616-1.076.164.079 1.086zm9-2l-.799.739.079-1.086-1.077-.164.899-.616-.542-.944 1.04.319.4-1.013.401 1.013 1.041-.319-.543.944.898.616-1.076.164.079 1.086zm-5 14l-.799.739.079-1.086-1.077-.164.899-.616-.542-.944 1.04.319.4-1.013.401 1.013 1.041-.319-.543.944.898.616-1.076.164.079 1.086zM31 16l.294.596.657.095-.475.463.112.655L31 17.5l-.588.309.112-.655-.475-.463.657-.095z" fill="#FFF"/><path fill="#00247D" d="M19 18V5H4c-.32 0-.604.045-.604.045l-.004 1.754-2.73-.004S.62 6.854.535 7C.195 7.589 0 8.272 0 9v9h19z"/><path fill="#FFF" d="M19 5h-2.331L12 8.269V5H7v2.569L3.396 5.045c-.614.094-1.19.325-1.672.665L6.426 9H4.69L.967 6.391c-.11.129-.211.262-.305.404L3.813 9H0v5h3.885L0 16.766V18h3.332L7 15.432V18h5v-3.269L16.668 18H19v-2.029L16.185 14H19V9h-2.814L19 7.029V5z"/><path fill="#CF1B2B" d="M11 5H8v5H0v3h8v5h3v-5h8v-3h-8z"/><path fill="#CF1B2B" d="M19 5h-1.461L12 8.879V9h1.571L19 5.198zm-17.276.71c-.281.195-.534.423-.757.681L4.69 9h1.735L1.724 5.71zM6.437 14L.734 18h1.727L7 14.822V14zM19 17.802v-1.22L15.313 14H13.57z"/></svg>

<svg viewBox="0 0 36 36" xmlns="http://www.w3.org/2000/svg"><path d="m32 5h-28c-.21 0-.41.02-.6.05v1.75h-2.73c-.43.63-.67 1.39-.67 2.2v18c0 2.21 1.79 4 4 4h28c2.21 0 4-1.79 4-4v-18c0-2.21-1.79-4-4-4z" fill="#00247d"/><path d="m9 26.02-1.22 1.13.12-1.66-1.65-.25 1.37-.94-.83-1.44 1.59.49.62-1.55.61 1.55 1.59-.49-.83 1.44 1.37.94-1.65.25.12 1.66zm18.95-16.46-.8.74.08-1.09-1.08-.16.9-.62-.54-.94 1.04.32.4-1.01.4 1.01 1.04-.32-.54.94.9.62-1.08.16.08 1.09zm-4 6-.8.74.08-1.09-1.08-.16.9-.62-.54-.94 1.04.32.4-1.01.4 1.01 1.04-.32-.54.94.9.62-1.08.16.08 1.09zm9-2-.8.74.08-1.09-1.08-.16.9-.62-.54-.94 1.04.32.4-1.01.4 1.01 1.04-.32-.54.94.9.62-1.08.16.08 1.09zm-5 14-.8.74.08-1.09-1.08-.16.9-.62-.54-.94 1.04.32.4-1.01.4 1.01 1.04-.32-.54.94.9.62-1.08.16.08 1.09zm3.05-11.56.29.6.66.1-.48.46.11.66-.58-.32-.59.31.11-.66-.48-.46.66-.1z" fill="#fff"/><path d="m19 18v-13h-15c-.32 0-.6.05-.6.05v1.75h-2.73s-.05.05-.13.2c-.34.59-.54 1.27-.54 2v9z" fill="#00247d"/><path d="m19 5h-2.33l-4.67 3.27v-3.27h-5v2.57l-3.6-2.52c-.61.09-1.19.33-1.67.67l4.7 3.28h-1.74l-3.72-2.61c-.11.13-.21.26-.31.4l3.15 2.21h-3.81v5h3.89l-3.89 2.77v1.23h3.33l3.67-2.57v2.57h5v-3.27l4.67 3.27h2.33v-2.03l-2.82-1.97h2.82v-5h-2.81l2.81-1.97z" fill="#fff"/><g fill="#cf1b2b"><path d="m11 5h-3v5h-8v3h8v5h3v-5h8v-3h-8z"/><path d="m19 5h-1.46l-5.54 3.88v.12h1.57l5.43-3.8zm-17.28.71c-.28.2-.53.42-.76.68l3.73 2.61h1.74zm4.72 8.29-5.71 4h1.73l4.54-3.18v-.82zm12.56 3.8v-1.22l-3.69-2.58h-1.74z"/></g></svg>
